images/Services/Cosmetology.svg

<?xml-stylesheet type="text/css" href="./css/style.min.css"?>
<svg width="107" height="107" viewBox="0 0 107 107"  xmlns="http://www.w3.org/2000/svg">
<g clip-path="url(#clip0)">
<path d="M58.315 15.654C57.8673 15.1904 57.2042 15.0045 56.5807 15.1677C55.9572 15.3309 55.4703 15.8179 55.3071 16.4414C55.1439 17.0649 55.3298 17.7279 55.7934 18.1757L63.7096 26.0919C63.3687 27.3165 63.7166 28.6296 64.6191 29.5248C67.7595 32.6653 70.1135 35.4811 75.5099 36.1231C79.4991 36.4911 83.247 38.196 86.1457 40.9613L94.884 49.6997C96.724 51.4635 99.3653 52.1118 101.813 51.4002C104.26 50.6887 106.142 48.7254 106.75 46.25C107.358 43.7745 106.598 41.163 104.758 39.3991L96.2322 30.873C93.4678 27.9739 91.7635 24.2261 91.3958 20.2372C90.7324 14.7089 87.6366 12.189 84.7975 9.34639C83.8962 8.45585 82.5901 8.11032 81.3664 8.43867L73.4502 0.522454C72.7504 -0.15338 71.6381 -0.143715 70.9502 0.544177C70.2624 1.23207 70.2527 2.34434 70.9285 3.04409L78.4952 10.6108L75.97 13.1324L68.4069 5.5675C67.7071 4.89167 66.5949 4.90134 65.907 5.58923C65.2191 6.27712 65.2094 7.38939 65.8853 8.08914L73.4502 15.654L70.9285 18.1757L63.3618 10.6108C62.6621 9.93494 61.5498 9.9446 60.8619 10.6325C60.174 11.3204 60.1644 12.4327 60.8402 13.1324L68.4069 20.6973L65.8835 23.2207L58.315 15.654ZM87.8541 20.6634C88.3141 25.4469 90.378 29.9342 93.7106 33.3964L102.237 41.9225C103.644 43.2607 103.814 45.4456 102.631 46.9854C101.966 47.7085 101.04 48.1359 100.059 48.1724C99.0774 48.2089 98.1221 47.8515 97.4057 47.1798L88.6673 38.4415C85.2056 35.108 80.7181 33.0434 75.9343 32.5832C71.7292 32.0821 69.871 29.7299 67.1407 27.0032L82.2777 11.8752C85.0989 14.691 87.3548 16.4672 87.8577 20.6634H87.8541Z" fill="#87AD3B"/>
<path d="M80.6245 73.2022C78.4685 66.9463 81.2398 58.5129 81.9959 44.6457C82.0309 44.0086 81.7234 43.4011 81.1892 43.0522C80.6549 42.7033 79.9751 42.6659 79.4058 42.9542C78.8366 43.2424 78.4643 43.8124 78.4292 44.4495C77.6945 57.969 74.9821 66.2668 76.9651 73.4572C69.6267 74.1295 60.6334 75.9592 60.6334 80.2499C60.7804 81.7308 61.7043 83.0216 63.0587 83.6383L63.9307 87.9985C61.8086 88.2963 59.4974 88.5335 57.0257 88.7119V76.3765C60.7763 72.3849 63.4902 67.5338 64.9294 62.249C67.7827 61.4946 73.1167 58.8785 73.1167 49.8619C73.1167 45.6907 72.1537 43.1762 70.1706 42.174C69.1836 41.6979 68.0521 41.6162 67.007 41.9457C67.007 40.8097 66.9678 39.6845 66.8875 38.618C66.8557 38.1952 66.6742 37.7975 66.3757 37.4963C59.4956 30.5591 56.5317 30.3166 43.6917 30.3166C35.1531 30.3166 31.9484 25.4374 30.7982 22.527C30.592 22.0064 30.1533 21.6129 29.6135 21.4643C29.0737 21.3157 28.4954 21.4292 28.0518 21.7709C22.9586 25.6942 20.4531 32.2925 20.3835 41.9475C19.3391 41.6185 18.2085 41.6994 17.2217 42.174C15.2297 43.1762 14.2667 45.6907 14.2667 49.8619C14.2667 58.8499 19.565 61.4768 22.4236 62.2383C23.8518 67.5648 26.5876 72.4503 30.3827 76.4514V88.7101C12.1267 87.3833 7.47753 83.3619 5.03971 80.6066C16.8097 74.9784 7.11908 52.2819 8.83821 34.3594C10.5912 16.1623 25.8584 15.3259 30.5039 15.4918C30.8872 15.5339 31.2742 15.46 31.615 15.2795C39.0918 11.5471 47.4835 10.0411 55.7916 10.9407C56.4252 11.0092 57.0472 10.7344 57.4234 10.2199C57.7995 9.70546 57.8726 9.0294 57.6151 8.44642C57.3576 7.86345 56.8086 7.46213 56.175 7.39364C47.3096 6.45445 38.3585 8.02198 30.3399 11.918C19.2975 11.6344 6.90508 17.2394 5.28581 34.017C3.49178 52.742 13.2109 75.3404 1.73698 77.9833C0.964067 78.0319 0.3087 78.569 0.109383 79.3174C-0.0899338 80.0657 0.211422 80.8577 0.857797 81.2843C3.76463 83.9593 5.92068 90.5862 30.5771 92.3089C31.1982 94.6644 33.3269 96.3071 35.763 96.3107H51.706C54.1358 96.3201 56.2562 94.6647 56.8366 92.3053C59.6365 92.1109 62.2455 91.8416 64.6316 91.501C66.2544 99.6116 65.9834 97.386 65.9834 101.65C65.9834 104.605 68.3786 107 71.3334 107H96.3C99.2547 107 101.65 104.605 101.65 101.65C101.65 97.1274 101.174 100.637 104.575 83.6383C105.929 83.0216 106.853 81.7308 107 80.2499C107 73.8103 87.1711 72.8919 80.6245 73.2022ZM68.5603 45.3572C68.6013 45.3769 69.55 45.8922 69.55 49.8619C69.55 54.6324 67.7667 56.9347 65.8978 58.0421C66.5959 54.0004 66.961 49.9081 66.9892 45.8066C67.8095 45.3376 68.3641 45.2556 68.5603 45.3572ZM17.8333 49.8619C17.8333 45.9012 18.7821 45.3769 18.8231 45.3572C19.0193 45.2592 19.5739 45.3394 20.3924 45.8084C20.4189 49.9049 20.7767 53.9926 21.4624 58.0314C19.5988 56.9204 17.8333 54.6181 17.8333 49.8619ZM27.7647 66.3774C24.569 59.5544 23.927 52.1428 23.927 42.3987C23.927 34.8837 25.4571 29.5195 28.5958 26.0937C30.5895 29.4339 34.8981 33.8833 43.6917 33.8833C56.0324 33.8833 57.8727 34.0705 63.3743 39.5382C63.4296 40.462 63.4564 41.4214 63.4564 42.3916C63.4564 52.1143 62.8072 59.5116 59.574 66.3685C55.829 74.3418 50.4898 78.3846 43.6917 78.3846C36.8401 78.3917 31.483 74.3507 27.7647 66.3774ZM51.706 92.744H35.763C35.2462 92.7513 34.7516 92.534 34.4074 92.1484C34.0632 91.7628 33.9033 91.2468 33.969 90.7342C33.969 90.6432 33.9493 92.0093 33.9493 79.2584C39.9513 82.8849 47.473 82.8684 53.459 79.2156V90.95C53.4691 91.4217 53.2889 91.8776 52.9592 92.215C52.6294 92.5525 52.1778 92.7431 51.706 92.744ZM83.8167 76.6833C94.6772 76.6833 102.062 78.9374 103.328 80.2499C102.062 81.5625 94.6772 83.8166 83.8167 83.8166C72.9562 83.8166 65.5714 81.5625 64.3052 80.2499C65.5714 78.9374 72.9562 76.6833 83.8167 76.6833ZM98.0834 101.65C98.0834 102.635 97.2849 103.433 96.3 103.433H71.3334C70.3484 103.433 69.55 102.635 69.55 101.65V99.8666H87.3834C88.3683 99.8666 89.1667 99.0682 89.1667 98.0833C89.1667 97.0984 88.3683 96.2999 87.3834 96.2999H69.229C68.0699 90.5041 71.073 105.522 67.0284 85.3021C78.0532 88.0392 89.5801 88.0392 100.605 85.3021C97.5983 100.334 98.0834 96.6566 98.0834 101.65Z" fill="#87AD3B"/>
</g>
<defs>
<clipPath id="clip0">
<rect width="107" height="107" fill="white"/>
</clipPath>
</defs>
</svg>

<?xml-stylesheet type="text/css" href="/css/style.min.css"?><svg viewBox="0 0 107 107" xmlns="http://www.w3.org/2000/svg"><g clip-path="url(#clip0)" fill="#87AD3B"><path d="M58.315 15.654a1.783 1.783 0 10-2.522 2.522l7.917 7.916a3.51 3.51 0 00.91 3.433c3.14 3.14 5.493 5.956 10.89 6.598a17.774 17.774 0 0110.636 4.838l8.738 8.739a7.135 7.135 0 009.874-10.3l-8.526-8.527a17.777 17.777 0 01-4.836-10.636c-.664-5.528-3.76-8.048-6.599-10.89a3.567 3.567 0 00-3.43-.908L73.45.522a1.783 1.783 0 00-2.522 2.522l7.567 7.567-2.525 2.521-7.563-7.564a1.783 1.783 0 00-2.522 2.521l7.565 7.565-2.522 2.522-7.566-7.565a1.783 1.783 0 00-2.522 2.521l7.567 7.565-2.523 2.524-7.569-7.567zm29.54 5.01a21.3 21.3 0 005.856 12.732l8.526 8.526a3.796 3.796 0 01.394 5.063 3.68 3.68 0 01-5.225.195l-8.739-8.739a21.297 21.297 0 00-12.733-5.858c-4.205-.5-6.063-2.853-8.793-5.58l15.137-15.128c2.82 2.816 5.077 4.592 5.58 8.788h-.004z"/><path d="M80.624 73.202c-2.155-6.256.616-14.69 1.372-28.556a1.786 1.786 0 00-3.567-.197c-.734 13.52-3.447 21.818-1.464 29.008-7.338.672-16.332 2.502-16.332 6.793a4.176 4.176 0 002.426 3.388l.872 4.36c-2.122.298-4.434.535-6.905.714V76.376a33.477 33.477 0 007.903-14.127c2.854-.754 8.188-3.37 8.188-12.387 0-4.171-.963-6.686-2.946-7.688a4.303 4.303 0 00-3.164-.228c0-1.136-.04-2.261-.12-3.328a1.784 1.784 0 00-.511-1.122c-6.88-6.937-9.844-7.18-22.684-7.18-8.539 0-11.744-4.879-12.894-7.789a1.783 1.783 0 00-2.746-.756c-5.093 3.923-7.599 10.521-7.668 20.176a4.308 4.308 0 00-3.162.227c-1.992 1.002-2.955 3.517-2.955 7.688 0 8.988 5.298 11.615 8.157 12.376a33.115 33.115 0 007.959 14.213v12.26C12.127 87.382 7.478 83.36 5.04 80.606c11.77-5.629 2.08-28.325 3.798-46.248 1.753-18.197 17.02-19.033 21.666-18.867.383.042.77-.032 1.111-.213a43.617 43.617 0 0124.177-4.338 1.784 1.784 0 00.383-3.547 47.634 47.634 0 00-25.835 4.524c-11.043-.284-23.435 5.321-25.054 22.099C3.492 52.742 13.21 75.34 1.737 77.983a1.801 1.801 0 00-.88 3.301c2.908 2.675 5.064 9.302 29.72 11.025a5.371 5.371 0 005.186 4.002h15.943a5.263 5.263 0 005.13-4.006c2.8-.194 5.41-.463 7.796-.804 1.622 8.11 1.351 5.885 1.351 10.149a5.35 5.35 0 005.35 5.35H96.3a5.35 5.35 0 005.35-5.35c0-4.523-.476-1.013 2.925-18.012A4.177 4.177 0 00107 80.25c0-6.44-19.829-7.358-26.376-7.048zM68.56 45.357c.041.02.99.535.99 4.505 0 4.77-1.783 7.073-3.652 8.18a74.914 74.914 0 001.091-12.235c.82-.47 1.375-.551 1.571-.45zm-50.727 4.505c0-3.96.95-4.485.99-4.505.196-.098.75-.018 1.57.451a75.96 75.96 0 001.07 12.223c-1.864-1.11-3.63-3.413-3.63-8.17zm9.932 16.515c-3.196-6.823-3.838-14.234-3.838-23.978 0-7.515 1.53-12.88 4.669-16.305 1.994 3.34 6.302 7.79 15.096 7.79 12.34 0 14.18.187 19.682 5.654.056.924.082 1.883.082 2.854 0 9.722-.649 17.12-3.882 23.976-3.745 7.974-9.084 12.017-15.882 12.017-6.852.007-12.209-4.034-15.927-12.008zm23.941 26.367H35.763a1.783 1.783 0 01-1.794-2.01c0-.09-.02 1.275-.02-11.476a18.795 18.795 0 0019.51-.042V90.95a1.756 1.756 0 01-1.753 1.794zm32.11-16.06c10.861 0 18.246 2.253 19.512 3.566-1.266 1.313-8.65 3.567-19.511 3.567-10.86 0-18.246-2.254-19.512-3.567 1.266-1.313 8.651-3.567 19.512-3.567zm14.267 24.966c0 .985-.798 1.783-1.783 1.783H71.333a1.783 1.783 0 01-1.783-1.783v-1.783h17.833a1.783 1.783 0 100-3.567H69.23l-2.2-10.998a69.675 69.675 0 0033.576 0c-3.007 15.032-2.522 11.355-2.522 16.348z"/></g><defs><clipPath id="clip0"><path fill="#fff" d="M0 0h107v107H0z"/></clipPath></defs></svg>
